svg/system/fingerprint_fill.svg

<?xml version="1.0" encoding="UTF-8"?>
<svg width="24px" height="24px" viewBox="0 0 24 24" version="1.1" xmlns="http://www.w3.org/2000/svg" xmlns:xlink="http://www.w3.org/1999/xlink">
    <title>fingerprint_fill</title>
    <g id="页面-1" stroke="none" stroke-width="1" fill="none" fill-rule="evenodd">
        <g id="System" transform="translate(-48.000000, -336.000000)" fill-rule="nonzero">
            <g id="fingerprint_fill" transform="translate(48.000000, 336.000000)">
                 <path d="M24,0 L24,24 L0,24 L0,0 L24,0 Z M12.5934901,23.257841 L12.5819402,23.2595131 L12.5108777,23.2950439 L12.4918791,23.2987469 L12.4918791,23.2987469 L12.4767152,23.2950439 L12.4056548,23.2595131 C12.3958229,23.2563662 12.3870493,23.2590235 12.3821421,23.2649074 L12.3780323,23.275831 L12.360941,23.7031097 L12.3658947,23.7234994 L12.3769048,23.7357139 L12.4804777,23.8096931 L12.4953491,23.8136134 L12.4953491,23.8136134 L12.5071152,23.8096931 L12.6106902,23.7357139 L12.6232938,23.7196733 L12.6232938,23.7196733 L12.6266527,23.7031097 L12.609561,23.275831 C12.6075724,23.2657013 12.6010112,23.2592993 12.5934901,23.257841 L12.5934901,23.257841 Z M12.8583906,23.1452862 L12.8445485,23.1473072 L12.6598443,23.2396597 L12.6498822,23.2499052 L12.6498822,23.2499052 L12.6471943,23.2611114 L12.6650943,23.6906389 L12.6699349,23.7034178 L12.6699349,23.7034178 L12.678386,23.7104931 L12.8793402,23.8032389 C12.8914285,23.8068999 12.9022333,23.8029875 12.9078286,23.7952264 L12.9118235,23.7811639 L12.8776777,23.1665331 C12.8752882,23.1545897 12.8674102,23.1470016 12.8583906,23.1452862 L12.8583906,23.1452862 Z M12.1430473,23.1473072 C12.1332178,23.1423925 12.1221763,23.1452606 12.1156365,23.1525954 L12.1099173,23.1665331 L12.0757714,23.7811639 C12.0751323,23.7926639 12.0828099,23.8018602 12.0926481,23.8045676 L12.108256,23.8032389 L12.3092106,23.7104931 L12.3186497,23.7024347 L12.3186497,23.7024347 L12.3225043,23.6906389 L12.340401,23.2611114 L12.337245,23.2485176 L12.337245,23.2485176 L12.3277531,23.2396597 L12.1430473,23.1473072 Z" id="MingCute" fill-rule="nonzero"></path>
                <path d="M12,5.5 C15.0376,5.5 17.5000503,7.96243 17.5000503,11 L17.4987349,12.8513567 L17.4987349,12.8513567 L17.4930876,13.3324652 L17.4930876,13.3324652 L17.4802773,13.8282441 C17.477386,13.9119873 17.4740767,13.9962599 17.4702896,14.0810209 L17.441356,14.5951208 L17.441356,14.5951208 L17.3980877,15.1189782 C17.1668243,17.4953432 16.4130077,20.1084 13.9603,22.1523 C13.3239,22.6827 12.378,22.5967 11.8477,21.9603 C11.3173,21.3239 11.4033,20.378 12.0397,19.8477 C13.8906419,18.3051968 14.3502532,16.3026128 14.4634427,14.0405494 L14.4851276,13.4697439 L14.4851276,13.4697439 L14.4960065,12.8888232 L14.4960065,12.8888232 L14.4997075,12.2984839 L14.4997075,12.2984839 L14.5,11 C14.5,9.61929 13.3807,8.5 12,8.5 C10.6193,8.5 9.5,9.61929 9.5,11 L9.5,12 C9.5,13.0355 9.16938,14.2762 8.57353,15.3934 C7.97298,16.5194 7.02504,17.6645 5.67082,18.3416 C4.92985,18.7121 4.02884,18.4118 3.65836,17.6708 C3.30967294,16.9734824 3.5551982,16.1342574 4.20304156,15.7291331 L4.32918,15.6584 C4.97496,15.3355 5.52702,14.7306 5.92647,13.9816 C6.33062,13.2238 6.5,12.4645 6.5,12 L6.5,11 C6.5,7.96243 8.96243,5.5 12,5.5 Z M12,1.5 C17.2467,1.5 21.5,5.7533 21.5,11 L21.5,14.0012 L21.492325,14.4067 L21.492325,14.4067 L21.4640025,15.0014922 L21.4640025,15.0014922 L21.4345623,15.4274578 C21.4286383,15.5032031 21.4221719,15.581175 21.4151125,15.66115 L21.3652359,16.16325 C21.3459688,16.3374375 21.323925,16.51785 21.2987,16.7027 C21.1092,18.0924 20.7016,20.0645 19.7,21.4 C19.2029,22.0627 18.2627,22.1971 17.6,21.7 C16.9762824,21.2321412 16.8205398,20.3717785 17.2188108,19.719681 L17.3,19.6 C17.7984,18.9355 18.1408,17.6576 18.3263,16.2973 C18.3757857,15.9341 18.4112959,15.5885327 18.4367303,15.2800778 L18.4678125,14.847665 C18.4718959,14.7810469 18.4754714,14.7173571 18.4786,14.6569 C18.4898,14.4398 18.4981,14.2224 18.5,14.005 L18.5,11 C18.5,7.41015 15.5899,4.5 12,4.5 C8.41015,4.5 5.5,7.41015 5.5,11 L5.5,13 C5.5,13.8284 4.82843,14.5 4,14.5 C3.17157,14.5 2.5,13.8284 2.5,13 L2.5,11 C2.5,5.75329 6.75329,1.5 12,1.5 Z M12,10 C12.8284,10 13.5,10.6716 13.5,11.5 L13.4911207,12.0970388 C13.4537878,13.3428347 13.2881143,14.8791286 12.798,16.3493 C12.2249,18.0687 11.1521,19.851 9.17082,20.8416 C8.42985,21.2121 7.52884,20.9118 7.15836,20.1708 C6.80967294,19.4734824 7.0551982,18.6342574 7.70304156,18.2291331 L7.82918,18.1584 C8.84786,17.649 9.52509,16.6813 9.95197,15.4007 C10.3802,14.1159 10.5,12.6711 10.5,11.5 C10.5,10.6716 11.1716,10 12,10 Z" id="形状" fill="#09244B"></path>
            </g>
        </g>
    </g>
</svg>

<svg xmlns="http://www.w3.org/2000/svg" width="24" height="24"><g fill="none" fill-rule="nonzero"><path d="M24 0v24H0V0h24ZM12.593 23.258l-.011.002-.071.035-.02.004-.014-.004-.071-.035c-.01-.004-.019-.001-.024.005l-.004.01-.017.428.005.02.01.013.104.074.015.004.012-.004.104-.074.012-.016.004-.017-.017-.427c-.002-.01-.009-.017-.017-.018Zm.265-.113-.013.002-.185.093-.01.01-.003.011.018.43.005.012.008.007.201.093c.012.004.023 0 .029-.008l.004-.014-.034-.614c-.003-.012-.01-.02-.02-.022Zm-.715.002a.023.023 0 0 0-.027.006l-.006.014-.034.614c0 .012.007.02.017.024l.015-.002.201-.093.01-.008.004-.011.017-.43-.003-.012-.01-.01-.184-.092Z"/><path fill="#09244B" d="M12 5.5a5.5 5.5 0 0 1 5.5 5.5l-.001 1.851-.006.481-.013.496-.01.253-.029.514-.043.524c-.231 2.376-.985 4.99-3.438 7.033a1.5 1.5 0 1 1-1.92-2.304c1.85-1.543 2.31-3.545 2.423-5.807l.022-.571.011-.581.004-.59V11a2.5 2.5 0 0 0-5 0v1c0 1.036-.33 2.276-.926 3.393-.601 1.126-1.549 2.271-2.903 2.949a1.5 1.5 0 0 1-1.468-2.613l.126-.07c.646-.324 1.198-.928 1.597-1.677.405-.758.574-1.517.574-1.982v-1A5.5 5.5 0 0 1 12 5.5Zm0-4a9.5 9.5 0 0 1 9.5 9.5v3.001l-.008.406-.028.594-.03.426c-.005.076-.012.154-.019.234l-.05.502c-.019.174-.041.355-.066.54-.19 1.39-.597 3.361-1.599 4.697a1.5 1.5 0 0 1-2.481-1.68l.081-.12c.498-.665.84-1.942 1.026-3.303.05-.363.085-.708.11-1.017l.032-.432a20.088 20.088 0 0 0 .032-.843V11a6.5 6.5 0 1 0-13 0v2a1.5 1.5 0 0 1-3 0v-2A9.5 9.5 0 0 1 12 1.5Zm0 8.5a1.5 1.5 0 0 1 1.5 1.5l-.009.597c-.037 1.246-.203 2.782-.693 4.252-.573 1.72-1.646 3.502-3.627 4.493a1.5 1.5 0 0 1-1.468-2.613l.126-.07c1.019-.51 1.696-1.478 2.123-2.758.428-1.285.548-2.73.548-3.901A1.5 1.5 0 0 1 12 10Z"/></g></svg>
